svgs/thin/wand-magic.svg

<svg xmlns="http://www.w3.org/2000/svg" viewBox="0 0 512 512"><!--! Font Awesome Pro 6.3.0 by @fontawesome - https://fontawesome.com License - https://fontawesome.com/license (Commercial License) Copyright 2023 Fonticons, Inc. --><path d="M12.28 411.7L411.7 12.28C427.3-3.337 452.7-3.337 468.3 12.28L499.7 43.72C515.3 59.34 515.3 84.66 499.7 100.3L100.3 499.7C84.66 515.3 59.34 515.3 43.72 499.7L12.28 468.3C-3.337 452.7-3.337 427.3 12.28 411.7V411.7zM293.7 154.3L357.7 218.3C357.9 218.6 358.1 218.8 358.3 219.1L488.4 88.97C497.8 79.6 497.8 64.4 488.4 55.03L456.1 23.6C447.6 14.23 432.4 14.23 423 23.6L292.9 153.7C293.2 153.9 293.4 154.1 293.7 154.3V154.3zM281.7 164.9L23.6 423C14.23 432.4 14.23 447.6 23.6 456.1L55.03 488.4C64.4 497.8 79.6 497.8 88.97 488.4L347.1 230.3C346.8 230.1 346.6 229.9 346.3 229.7L282.3 165.7C282.1 165.4 281.9 165.2 281.7 164.9H281.7z"/></svg>

<svg xmlns="http://www.w3.org/2000/svg" viewBox="0 0 512 512"><!--! Font Awesome Pro 6.4.0 by @fontawesome - https://fontawesome.com License - https://fontawesome.com/license (Commercial License) Copyright 2023 Fonticons, Inc. --><path d="M292.9 153.7c.3 .2 .5 .4 .7 .6l64 64c.2 .2 .4 .5 .6 .7L488.4 89c9.4-9.4 9.4-24.6 0-33.9L457 23.6c-9.4-9.4-24.6-9.4-33.9 0L292.9 153.7zm-11.2 11.2L23.6 423c-9.4 9.4-9.4 24.6 0 33.9L55 488.4c9.4 9.4 24.6 9.4 33.9 0L347.1 230.3c-.3-.2-.5-.4-.7-.6l-64-64c-.2-.2-.4-.5-.6-.7zM12.3 411.7L411.7 12.3c15.6-15.6 40.9-15.6 56.6 0l31.4 31.4c15.6 15.6 15.6 40.9 0 56.6L100.3 499.7c-15.6 15.6-40.9 15.6-56.6 0L12.3 468.3c-15.6-15.6-15.6-40.9 0-56.6z"/></svg>
